packages/ui-icons/src/Basic/16/Bonus_16.svg

<svg xmlns="http://www.w3.org/2000/svg" viewBox="0 0 20 20"><path d="M17 7h-2.28A3 3 0 1 0 10 3.34 3 3 0 1 0 5.28 7H3v5h1v6h12v-6h1Zm-4.5-4a2 2 0 0 1 0 4h-2V5a2 2 0 0 1 2-2Zm-7 2a2 2 0 1 1 4 0v2h-2a2 2 0 0 1-2-2ZM5 12h4.5v5H5Zm10 5h-4.5v-5H15Zm1-6H4V8h12Z"/></svg>

<svg id="ready" xmlns="http://www.w3.org/2000/svg" viewBox="0 0 20 20"><title>Megaicons_work_16_1.8_cp</title><path d="M17,7H14.72A3,3,0,1,0,10,3.34,3,3,0,1,0,5.28,7H3v5H4v6H16V12h1ZM12.5,3a2,2,0,0,1,0,4h-2V5A2,2,0,0,1,12.5,3Zm-7,2a2,2,0,1,1,4,0V7h-2A2,2,0,0,1,5.5,5ZM5,12H9.5v5H5Zm10,5H10.5V12H15Zm1-6H4V8H16Z"/></svg>
